!!!Genre:	Freylekhs
!!!Mode:	Major
!!!Listening/dance:	dance
!!!:	*g:dor; *G:frey
!!!One_Mode:	no
**kern
*I"P1
*clefG2
*k[f#]
*g:dor
=10!|:
*>B
*k[b-]
(8qff#X/
2gg)
=11
(8qff#Xt/
2gg)
=12
(8qff#X/
4gg)
(8qff#/
4gg)
=13
(8qff#Xt/
4gg)
(8qff#/
4gg)
=14
(16bb-LL
16aaJ
8ggJ)
8r
[8gg
=15
(16ggLL]
16ff)
(16ff
16eeJJ)
16ffLL
16eeJ
8ddJ
=16
16bb-LL
16aaJ
8ggJ
8r
[8gg
=17
(16ggLL]
16ff)
(16ff
16eeJJ)
(16ffLL
16eeJ
8ddJ)
=18
(16bb-LL
16aaJ
8ggJ
(16ggLL
16ffJ
8eeJ)
=19
(16ffLL
16eeJ
8ddJ)
8dd
8r
=20
(16qqdd/LL
16qqee/
16qqdd/JJ
16cc#XLL)
16dd
16ee
16ffJJ
(16qqee/LL
16qqff/JJ
*^
16eeLL)	4ryy
16dd	.
16cc#	.
16b-JJ	.
*v	*v
=21
16aLL
16b-JJ
4cc#X
16cc#LL
16eeJJ
=22
((16qqee/LL
16qqff/JJ
16eeLL)
16dd)
((16qqdd/LL
16qqee/JJ
16dd)
16cc#XJJ)
((16qqcc#/LL
16qqdd/JJ
16cc#LL)
16b-)
((16qqb-/LL
16qqcc#/JJ
16b-)
16aJJ)
=23
(16aLL
16b-JJ
4cc#X)
(16cc#LL
16eeJJ)
=24
((16qqee/LL
16qqff/JJ
16eeLL)
16dd)
((16qqdd/LL
16qqee/JJ
16dd)
16cc#XJJ)
((16qqcc#/LL
16qqdd/JJ
16cc#LL)
16b-)
((16qqb-/LL
16qqcc#/JJ
16b-)
16aJJ)
=25
16aLL
(8qcc#X/
16b-JJ)
4.g
*>eM
*>bM
*-
